lib/logo_tmp/nrk-logo-nrk-mp3-with-bg.svg

<svg width="92" height="28" viewBox="0 0 92 28" fill="none" xmlns="http://www.w3.org/2000/svg">
<rect width="91.6667" height="28" fill="#03FCA3"/>
<path d="M6.66663 21V7.00123H11.26V21H6.66663ZM17.5094 9.2292L20.151 21H15.124L11.9697 7.00123H14.7892C15.4357 6.99284 16.063 7.22075 16.5535 7.64208C17.0449 8.04574 17.3824 8.60611 17.5094 9.2292ZM20.8411 21V7.00123H25.4345V21H20.8411ZM28.9038 12.3247C28.4089 12.3296 27.9218 12.2001 27.4946 11.9501C27.073 11.7064 26.7229 11.3562 26.4793 10.9347C26.229 10.5073 26.0995 10.0202 26.1044 9.525C26.0988 9.03283 26.2284 8.54857 26.4793 8.12512C26.7255 7.70811 27.0752 7.36174 27.4946 7.11957C27.922 6.86988 28.4089 6.74039 28.9038 6.74491C29.3959 6.73961 29.8799 6.86921 30.3035 7.11957C30.7187 7.36386 31.0647 7.70995 31.309 8.12512C31.5596 8.54869 31.6892 9.03287 31.6838 9.525C31.6884 10.0201 31.5589 10.5072 31.309 10.9347C31.0673 11.3544 30.7209 11.7043 30.3035 11.9501C29.8799 12.2009 29.3955 12.3306 28.9032 12.3247H28.9038ZM32.3935 21V7.00123H36.9873V21H32.3935ZM42.8027 14.6512C42.8156 14.6648 42.9141 14.8258 43.0983 15.1343C43.2826 15.4427 43.5224 15.8371 43.8179 16.3173C44.1136 16.7973 44.4257 17.3066 44.754 17.8453C45.0824 18.384 45.3913 18.8934 45.6809 19.3734C45.9694 19.8534 46.298 20.3955 46.6666 21H41.6198C41.3041 20.4873 41.0181 20.024 40.7618 19.61C40.5056 19.1959 40.2331 18.749 39.9444 18.2692C39.6551 17.7899 39.369 17.3233 39.0862 16.8693C38.8034 16.4154 38.5604 16.0178 38.3571 15.6765C38.153 15.335 38.0116 15.1049 37.9329 14.9864C37.7379 14.6923 37.6225 14.3526 37.5981 14.0006C37.6176 13.6627 37.7263 13.3361 37.9132 13.0539C37.992 12.9225 38.1366 12.6891 38.3469 12.3539C38.5572 12.0188 38.8036 11.6212 39.0862 11.1611C39.3688 10.7011 39.6549 10.2312 39.9444 9.7514C40.234 9.27163 40.5064 8.8214 40.7618 8.40078C41.0186 7.9806 41.3046 7.51398 41.6198 7.00091H46.6666L42.7629 13.3694C42.6421 13.5585 42.574 13.7764 42.5657 14.0006C42.5787 14.236 42.6609 14.4623 42.8019 14.6512H42.8027Z" fill="black"/>
<path d="M71.1563 7H66.8306C66.8306 7 69.2874 11.0269 69.3152 11.0787C69.4082 11.1954 69.4601 11.3395 69.463 11.4886C69.4659 11.6378 69.4195 11.7837 69.3311 11.9039L66.8306 15.9958H71.155C71.155 15.9958 73.2401 12.5901 73.5253 12.1175C73.6609 11.9362 73.7332 11.7155 73.7311 11.4892C73.729 11.2629 73.6526 11.0436 73.5137 10.8648C73.209 10.3433 73.2073 10.3436 71.1563 7Z" fill="black"/>
<path d="M84.6987 9.31811C84.5533 9.07089 83.2663 7 83.2663 7H74.0127L76.0343 10.3869H80.9087L78.8967 13.68L81.1403 17.4429L78.9773 20.9941H82.9283C83.5635 19.956 84.5146 18.3509 84.7129 18.0235C84.849 17.8416 84.9215 17.6202 84.9194 17.3932C84.9174 17.1662 84.8407 16.9462 84.7013 16.7669C84.503 16.4299 83.4455 14.7534 82.8133 13.7219C82.8133 13.7219 84.5146 10.9064 84.7129 10.5773C84.8493 10.395 84.9219 10.1729 84.9193 9.94532C84.9168 9.71772 84.8392 9.4973 84.6987 9.31811Z" fill="black"/>
<path d="M75.7957 14.1401C75.1866 15.1336 74.1681 16.7988 73.9781 17.1233C73.8439 17.296 73.7701 17.5079 73.7682 17.7265C73.7662 17.9451 73.8361 18.1583 73.9671 18.3333C74.1582 18.6502 75.1847 20.3283 75.7967 21.3281C76.4085 20.3283 77.4353 18.6502 77.626 18.3333C77.7571 18.1583 77.827 17.9451 77.8251 17.7265C77.8231 17.5078 77.7493 17.2959 77.6151 17.1233C77.4234 16.7988 76.4045 15.1336 75.7957 14.1401Z" fill="black"/>
<path d="M63.498 7C63.0484 7.00302 62.6094 7.13662 62.2345 7.38453C61.9166 7.57993 59.3233 9.77856 59.1256 9.9459C58.9273 9.77856 56.3347 7.57993 56.0167 7.38453C55.6419 7.13662 55.2029 7.00302 54.7533 7H52V19.3296L55.827 16.4579V11.5068L59.1256 13.9863L62.4242 11.5068V20.9922H66.2737V7H63.498Z" fill="black"/>
</svg>

<svg xmlns="http://www.w3.org/2000/svg" viewBox="0 0 92 28"><path fill="#03FCA3" d="M0 0h91.667v28H0z"/><path fill="#000" d="M6.667 21V7.001h4.593V21H6.667ZM17.509 9.23 20.151 21h-5.027L11.97 7.001h2.82a2.655 2.655 0 0 1 1.764.641c.49.404.828.964.955 1.587ZM20.841 21V7.001h4.593V21h-4.593Zm8.063-8.675a2.779 2.779 0 0 1-2.425-1.39 2.736 2.736 0 0 1-.375-1.41 2.686 2.686 0 0 1 .375-1.4 2.812 2.812 0 0 1 3.825-1.005c.415.244.76.59 1.005 1.005.25.424.38.908.375 1.4.004.495-.125.982-.375 1.41a2.8 2.8 0 0 1-1.006 1.015c-.423.25-.908.38-1.4.375ZM32.394 21V7.001h4.593V21h-4.593Zm10.409-6.349c.013.014.111.175.295.483.185.309.424.703.72 1.183a373.133 373.133 0 0 1 1.863 3.056c.288.48.617 1.022.986 1.627H41.62l-.858-1.39a127.3 127.3 0 0 1-.818-1.34c-.289-.48-.575-.947-.858-1.4a71.148 71.148 0 0 1-.729-1.194 20.758 20.758 0 0 0-.424-.69 2.04 2.04 0 0 1-.335-.985c.02-.338.128-.665.315-.947.079-.132.224-.365.434-.7a206.222 206.222 0 0 0 1.598-2.602c.289-.48.561-.93.817-1.351L41.62 7h5.047l-3.904 6.368c-.12.19-.189.407-.197.632.013.235.095.461.236.65ZM71.156 7h-4.325s2.456 4.027 2.484 4.079a.679.679 0 0 1 .016.825l-2.5 4.092h4.324s2.085-3.406 2.37-3.879a1.033 1.033 0 0 0-.011-1.252c-.305-.522-.307-.521-2.358-3.865ZM84.699 9.318A392.778 392.778 0 0 0 83.266 7h-9.253l2.021 3.387h4.875l-2.012 3.293 2.243 3.763-2.163 3.551h3.951c.636-1.038 1.587-2.643 1.785-2.97a1.036 1.036 0 0 0-.012-1.257c-.198-.337-1.255-2.014-1.888-3.045l1.9-3.145a1.035 1.035 0 0 0-.014-1.259Z"/><path fill="#000" d="M75.796 14.14c-.61.994-1.628 2.659-1.818 2.983a.997.997 0 0 0-.01 1.21c.19.317 1.217 1.995 1.829 2.995.612-1 1.638-2.678 1.829-2.995a.998.998 0 0 0-.01-1.21c-.193-.324-1.212-1.99-1.82-2.983ZM63.498 7c-.45.003-.889.137-1.264.385-.317.195-2.91 2.394-3.108 2.56-.199-.166-2.791-2.365-3.11-2.56A2.318 2.318 0 0 0 54.754 7H52v12.33l3.827-2.872v-4.951l3.299 2.48 3.298-2.48v9.485h3.85V7h-2.776Z"/></svg>
